X: 1
T: Mountain Stream, The
M: 4/4
L: 1/8
R: barndance
K: Gmaj
~d3 e dB G2 | ~A2 AB AG E2 | ~D3 G E2 EG | D2 DG EF GA |
~d3 e dB G2 | ~A2 AB AG EG | D2 DE GA Bc | dB AB G2 Bc:|
|: d2 Bd g2 fe | d2 BG A2 GE | ~D3 G E2 EG | D2 DG EF GA |
d2 Bd g2 fe | d2 BG A2 GE | D2 DE GA Bc | dB AB G2 Bc :|
|: ~B3 A ~G3 E | D2 BG AB GE | ~D3 G E2 EG | D2 DG EF GA |
~B3 A ~G3 E | D2 BG A2 (3Bcd | ~e3 g ed Bc | dB AB G2 GA :|
